X: 19
T:The Scotsman over the Border
M:6/8
L:1/8
Q:120
C:Traditional
K:D
D2 D FDF| AFA d2  A| BdB BAB| def edB| ADD FDF| AFA d2 A| B/2c/2dB AFA|1
 dAF ECE:|2 dAF E2 D|| dfa afa| bag fed| dfa  afd| def edB| dfa afa| bag
 fed| B/2c/2dB AFA|1 dAF E2 D:|2 dAF ECE||
